material/.icons/material/microwave.svg

<svg xmlns="http://www.w3.org/2000/svg" viewBox="0 0 24 24"><path d="M4 5a2 2 0 00-2 2v10a2 2 0 002 2h16a2 2 0 002-2V7a2 2 0 00-2-2H4m0 2h12v10H4V7m15 0a1 1 0 011 1 1 1 0 01-1 1 1 1 0 01-1-1 1 1 0 011-1m-6 2v6h2V9h-2m6 2a1 1 0 011 1 1 1 0 01-1 1 1 1 0 01-1-1 1 1 0 011-1z"/></svg>

<?xml version="1.0" encoding="UTF-8"?><!DOCTYPE svg PUBLIC "-//W3C//DTD SVG 1.1//EN" "http://www.w3.org/Graphics/SVG/1.1/DTD/svg11.dtd"><svg xmlns="http://www.w3.org/2000/svg" xmlns:xlink="http://www.w3.org/1999/xlink" version="1.1" id="mdi-microwave" width="24" height="24" viewBox="0 0 24 24"><path d="M4,5A2,2 0 0,0 2,7V17A2,2 0 0,0 4,19H20A2,2 0 0,0 22,17V7A2,2 0 0,0 20,5H4M4,7H16V17H4V7M19,7A1,1 0 0,1 20,8A1,1 0 0,1 19,9A1,1 0 0,1 18,8A1,1 0 0,1 19,7M13,9V15H15V9H13M19,11A1,1 0 0,1 20,12A1,1 0 0,1 19,13A1,1 0 0,1 18,12A1,1 0 0,1 19,11Z" /></svg>
